Numix-Circle/48x48/apps/crystal-picnic.svg

<svg xmlns="http://www.w3.org/2000/svg" viewBox="0 0 48 48"><defs><linearGradient id="linearGradient4170" x1="1" x2="47" gradientUnits="userSpaceOnUse"><stop stop-color="#74bfff" stop-opacity="1"/><stop offset="1" stop-color="#89c9ff" stop-opacity="1"/></linearGradient></defs><g><path d="m 36.31 5 c 5.859 4.062 9.688 10.831 9.688 18.5 c 0 12.426 -10.07 22.5 -22.5 22.5 c -7.669 0 -14.438 -3.828 -18.5 -9.688 c 1.037 1.822 2.306 3.499 3.781 4.969 c 4.085 3.712 9.514 5.969 15.469 5.969 c 12.703 0 23 -10.298 23 -23 c 0 -5.954 -2.256 -11.384 -5.969 -15.469 c -1.469 -1.475 -3.147 -2.744 -4.969 -3.781 z m 4.969 3.781 c 3.854 4.113 6.219 9.637 6.219 15.719 c 0 12.703 -10.297 23 -23 23 c -6.081 0 -11.606 -2.364 -15.719 -6.219 c 4.16 4.144 9.883 6.719 16.219 6.719 c 12.703 0 23 -10.298 23 -23 c 0 -6.335 -2.575 -12.06 -6.719 -16.219 z" opacity="0.05"/><path d="m 41.28 8.781 c 3.712 4.085 5.969 9.514 5.969 15.469 c 0 12.703 -10.297 23 -23 23 c -5.954 0 -11.384 -2.256 -15.469 -5.969 c 4.113 3.854 9.637 6.219 15.719 6.219 c 12.703 0 23 -10.298 23 -23 c 0 -6.081 -2.364 -11.606 -6.219 -15.719 z" opacity="0.1"/><path d="m 31.25 2.375 c 8.615 3.154 14.75 11.417 14.75 21.13 c 0 12.426 -10.07 22.5 -22.5 22.5 c -9.708 0 -17.971 -6.135 -21.12 -14.75 a 23 23 0 0 0 44.875 -7 a 23 23 0 0 0 -16 -21.875 z" opacity="0.2"/></g><g transform="matrix(0,-1,1,0,0,48)" fill="url(#linearGradient4170)" fill-opacity="1"><path d="M 24,1 C 36.703,1 47,11.297 47,24 47,36.703 36.703,47 24,47 11.297,47 1,36.703 1,24 1,11.297 11.297,1 24,1 Z"/></g><path d="m 20 13 0 2 -2 0 0 2 0 2 -2 0 0 2 -2 0 0 8 2 0 0 2 2 0 0 2 -2 0 0 2 -2 0 0 2 2 0 2 0 5 0 5 0 4 0 0 -2 4 0 0 -2 2 0 0 -4 -2 0 0 -2 -1 0 0 -6 -2 0 0 -2 -2 0 0 -2 -2 0 0 -2 -2 0 0 -2 -7 0 z" opacity="0.1" fill="#000" fill-rule="nonzero" stroke="none" fill-opacity="1"/><g><path d="m 40.03 7.531 c 3.712 4.084 5.969 9.514 5.969 15.469 0 12.703 -10.297 23 -23 23 c -5.954 0 -11.384 -2.256 -15.469 -5.969 4.178 4.291 10.01 6.969 16.469 6.969 c 12.703 0 23 -10.298 23 -23 0 -6.462 -2.677 -12.291 -6.969 -16.469 z" opacity="0.1"/></g><g><rect y="20" x="21" height="8" width="5" opacity="1" fill="#e9e9f8" fill-rule="nonzero" stroke="none" fill-opacity="1"/><path d="m 17 16 0 2 2 0 0 -2 -2 0 z m 0 2 -2 0 0 2 2 0 0 -2 z m -2 2 -2 0 0 8 2 0 0 -8 z m 0 8 0 2 2 0 0 -2 -2 0 z m 2 2 0 2 2 0 0 -2 -2 0 z m 0 2 -2 0 0 2 2 0 0 -2 z m -2 2 -2 0 0 2 2 0 0 -2 z m 13 -18 0 2 2 0 0 -2 -2 0 z m 2 2 0 2 2 0 0 -2 -2 0 z m 2 2 0 6 -9 0 0 2 12 0 0 -2 -1 0 0 -6 -2 0 z m 3 8 0 4 2 0 0 -4 -2 0 z m 0 4 -12 0 0 2 4 0 0 2 4 0 0 -2 4 0 0 -2 z m -12 0 0 -4 -2 0 0 4 2 0 z" opacity="1" fill="#351135" fill-rule="nonzero" stroke="none" fill-opacity="1"/><path d="m 19 12 0 2 -2 0 0 2 2 0 0 2 9 0 0 -2 0 -2 -2 0 0 -2 -7 0 z" opacity="1" fill="#684fc9" fill-rule="nonzero" stroke="none" fill-opacity="1"/><rect y="14" x="20" height="2" width="6" opacity="1" fill="#e9e9f8" fill-rule="nonzero" stroke="none" fill-opacity="1"/><path d="m 17 18 l 0 2 l 2 0 l 0 -2 l -2 0 z m 0 2 l -2 0 l 0 8 l 2 0 l 0 2 l 2 0 l 0 2 l -2 0 l 0 2 l 2 0 l 2 0 l 1 0 l 0 2 l 5 0 l 0 -2 l -4 0 l 0 -2 l -2 0 l 0 -5 l -2 0 l 0 -2 l -2 0 l 0 -5 z m 6 12 l 12 0 l 0 -2 l -9 0 l 0 -2 l -3 0 l 0 2 l 0 2 z m -6 2 l -2 0 l 0 2 l 2 0 l 0 -2 z m 11 -16 l 0 2 l 2 0 l 0 -2 l -2 0 z" opacity="1" fill="#996000" fill-rule="nonzero" stroke="none" fill-opacity="1"/><path d="m 19 18 l 0 2 l -2 0 l 0 5 l 2 0 l 0 2 l 2 0 l 0 -7 l 5 0 l 0 6 l 2 0 l 0 -8 l -2 0 l -7 0 z m -2 16 l 0 2 l 5 0 l 0 -2 l -5 0 z" opacity="1" fill="#f8c123" fill-rule="nonzero" stroke="none" fill-opacity="1"/><rect y="28" x="26" height="2" width="9" opacity="1" fill="#f88107" fill-rule="nonzero" stroke="none" fill-opacity="1"/><rect y="21" x="24" height="4" width="2" opacity="1" fill="#684fc9" fill-rule="nonzero" stroke="none" fill-opacity="1"/><rect y="20" x="28" height="6" width="4" opacity="1" fill="#e9e9f8" fill-rule="nonzero" stroke="none" fill-opacity="1"/><rect y="21" x="28" height="4" width="2" opacity="1" fill="#684fc9" fill-rule="nonzero" stroke="none" fill-opacity="1"/></g></svg>

<?xml version="1.0" encoding="UTF-8" standalone="no"?>
<svg
   xmlns:dc="http://purl.org/dc/elements/1.1/"
   xmlns:cc="http://creativecommons.org/ns#"
   xmlns:rdf="http://www.w3.org/1999/02/22-rdf-syntax-ns#"
   xmlns:svg="http://www.w3.org/2000/svg"
   xmlns="http://www.w3.org/2000/svg"
   xmlns:xlink="http://www.w3.org/1999/xlink"
   xmlns:sodipodi="http://sodipodi.sourceforge.net/DTD/sodipodi-0.dtd"
   xmlns:inkscape="http://www.inkscape.org/namespaces/inkscape"
   viewBox="0 0 48 48"
   id="svg2"
   version="1.1"
   inkscape:version="0.91 r13725"
   sodipodi:docname="crystal-picnic.svg">
  <metadata
     id="metadata65">
    <rdf:RDF>
      <cc:Work
         rdf:about="">
        <dc:format>image/svg+xml</dc:format>
        <dc:type
           rdf:resource="http://purl.org/dc/dcmitype/StillImage" />
      </cc:Work>
    </rdf:RDF>
  </metadata>
  <sodipodi:namedview
     pagecolor="#ffffff"
     bordercolor="#666666"
     borderopacity="1"
     objecttolerance="10"
     gridtolerance="10"
     guidetolerance="10"
     inkscape:pageopacity="0"
     inkscape:pageshadow="2"
     inkscape:window-width="1280"
     inkscape:window-height="998"
     id="namedview63"
     showgrid="true"
     showguides="false"
     inkscape:zoom="6.9532167"
     inkscape:cx="21.18376"
     inkscape:cy="8.1433203"
     inkscape:window-x="0"
     inkscape:window-y="0"
     inkscape:window-maximized="1"
     inkscape:current-layer="svg2">
    <inkscape:grid
       type="xygrid"
       id="grid4212" />
  </sodipodi:namedview>
  <defs
     id="defs4">
    <linearGradient
       inkscape:collect="always"
       id="linearGradient4164">
      <stop
         style="stop-color:#74bfff;stop-opacity:1;"
         offset="0"
         id="stop4166" />
      <stop
         style="stop-color:#89c9ff;stop-opacity:1"
         offset="1"
         id="stop4168" />
    </linearGradient>
    <linearGradient
       id="linearGradient3764"
       x1="1"
       x2="47"
       gradientUnits="userSpaceOnUse"
       gradientTransform="matrix(0,-1,1,0,-1.5e-6,47.999998)">
      <stop
         stop-color="#6b6b6b"
         stop-opacity="1"
         id="stop7" />
      <stop
         offset="1"
         stop-color="#757575"
         stop-opacity="1"
         id="stop9" />
    </linearGradient>
    <clipPath
       id="clipPath-932799937">
      <g
         transform="translate(0,-1004.3622)"
         id="g12">
        <path
           d="m -24 13 c 0 1.105 -0.672 2 -1.5 2 -0.828 0 -1.5 -0.895 -1.5 -2 0 -1.105 0.672 -2 1.5 -2 0.828 0 1.5 0.895 1.5 2 z"
           transform="matrix(15.333333,0,0,11.5,414.99999,878.8622)"
           fill="#1890d0"
           id="path14" />
      </g>
    </clipPath>
    <clipPath
       id="clipPath-940011818">
      <g
         transform="translate(0,-1004.3622)"
         id="g17">
        <path
           d="m -24 13 c 0 1.105 -0.672 2 -1.5 2 -0.828 0 -1.5 -0.895 -1.5 -2 0 -1.105 0.672 -2 1.5 -2 0.828 0 1.5 0.895 1.5 2 z"
           transform="matrix(15.333333,0,0,11.5,414.99999,878.8622)"
           fill="#1890d0"
           id="path19" />
      </g>
    </clipPath>
    <clipPath
       clipPathUnits="userSpaceOnUse"
       id="clipPath4208">
      <rect
         style="opacity:0.1;fill:#000000;fill-opacity:1;fill-rule:nonzero;stroke:none;stroke-width:1;stroke-linejoin:round;stroke-miterlimit:4;stroke-dasharray:none;stroke-opacity:1"
         id="rect4210"
         width="48.466778"
         height="48.179138"
         x="-66.012611"
         y="-3.9184165" />
    </clipPath>
    <linearGradient
       inkscape:collect="always"
       xlink:href="#linearGradient4164"
       id="linearGradient4170"
       x1="1"
       y1="24"
       x2="47"
       y2="24"
       gradientUnits="userSpaceOnUse" />
    <linearGradient
       inkscape:collect="always"
       xlink:href="#linearGradient4164"
       id="linearGradient4172"
       gradientUnits="userSpaceOnUse"
       x1="1"
       y1="24"
       x2="47"
       y2="24" />
  </defs>
  <g
     id="g21">
    <path
       d="m 36.31 5 c 5.859 4.062 9.688 10.831 9.688 18.5 c 0 12.426 -10.07 22.5 -22.5 22.5 c -7.669 0 -14.438 -3.828 -18.5 -9.688 c 1.037 1.822 2.306 3.499 3.781 4.969 c 4.085 3.712 9.514 5.969 15.469 5.969 c 12.703 0 23 -10.298 23 -23 c 0 -5.954 -2.256 -11.384 -5.969 -15.469 c -1.469 -1.475 -3.147 -2.744 -4.969 -3.781 z m 4.969 3.781 c 3.854 4.113 6.219 9.637 6.219 15.719 c 0 12.703 -10.297 23 -23 23 c -6.081 0 -11.606 -2.364 -15.719 -6.219 c 4.16 4.144 9.883 6.719 16.219 6.719 c 12.703 0 23 -10.298 23 -23 c 0 -6.335 -2.575 -12.06 -6.719 -16.219 z"
       opacity="0.05"
       id="path23" />
    <path
       d="m 41.28 8.781 c 3.712 4.085 5.969 9.514 5.969 15.469 c 0 12.703 -10.297 23 -23 23 c -5.954 0 -11.384 -2.256 -15.469 -5.969 c 4.113 3.854 9.637 6.219 15.719 6.219 c 12.703 0 23 -10.298 23 -23 c 0 -6.081 -2.364 -11.606 -6.219 -15.719 z"
       opacity="0.1"
       id="path25" />
    <path
       d="m 31.25 2.375 c 8.615 3.154 14.75 11.417 14.75 21.13 c 0 12.426 -10.07 22.5 -22.5 22.5 c -9.708 0 -17.971 -6.135 -21.12 -14.75 a 23 23 0 0 0 44.875 -7 a 23 23 0 0 0 -16 -21.875 z"
       opacity="0.2"
       id="path27" />
  </g>
  <g
     id="g29"
     style="fill:url(#linearGradient4170);fill-opacity:1"
     transform="matrix(0,-1,1,0,0,48)">
    <path
       d="M 24,1 C 36.703,1 47,11.297 47,24 47,36.703 36.703,47 24,47 11.297,47 1,36.703 1,24 1,11.297 11.297,1 24,1 Z"
       id="path31"
       style="fill:url(#linearGradient4172);fill-opacity:1"
       inkscape:connector-curvature="0" />
  </g>
  <path
     style="opacity:0.1;fill:#000000;fill-opacity:1;fill-rule:nonzero;stroke:none;stroke-width:1;stroke-linejoin:round;stroke-miterlimit:4;stroke-dasharray:none;stroke-opacity:1"
     d="m 20,13 0,2 -2,0 0,2 0,2 -2,0 0,2 -2,0 0,8 2,0 0,2 2,0 0,2 -2,0 0,2 -2,0 0,2 2,0 2,0 5,0 5,0 4,0 0,-2 4,0 0,-2 2,0 0,-4 -2,0 0,-2 -1,0 0,-6 -2,0 0,-2 -2,0 0,-2 -2,0 0,-2 -2,0 0,-2 -7,0 z"
     id="rect4317"
     inkscape:connector-curvature="0" />
  <rect
     style="opacity:1;fill:#e9e9f8;fill-opacity:1;fill-rule:nonzero;stroke:none;stroke-width:1;stroke-linejoin:round;stroke-miterlimit:4;stroke-dasharray:none;stroke-opacity:1"
     id="rect4314"
     width="5"
     height="8"
     x="21"
     y="20" />
  <g
     id="g33" />
  <g
     id="g59">
    <path
       d="m 40.03 7.531 c 3.712 4.084 5.969 9.514 5.969 15.469 0 12.703 -10.297 23 -23 23 c -5.954 0 -11.384 -2.256 -15.469 -5.969 4.178 4.291 10.01 6.969 16.469 6.969 c 12.703 0 23 -10.298 23 -23 0 -6.462 -2.677 -12.291 -6.969 -16.469 z"
       opacity="0.1"
       id="path61" />
  </g>
  <path
     style="opacity:1;fill:#351135;fill-opacity:1;fill-rule:nonzero;stroke:none;stroke-width:1;stroke-linejoin:round;stroke-miterlimit:4;stroke-dasharray:none;stroke-opacity:1"
     d="m 17,16 0,2 2,0 0,-2 -2,0 z m 0,2 -2,0 0,2 2,0 0,-2 z m -2,2 -2,0 0,8 2,0 0,-8 z m 0,8 0,2 2,0 0,-2 -2,0 z m 2,2 0,2 2,0 0,-2 -2,0 z m 0,2 -2,0 0,2 2,0 0,-2 z m -2,2 -2,0 0,2 2,0 0,-2 z m 13,-18 0,2 2,0 0,-2 -2,0 z m 2,2 0,2 2,0 0,-2 -2,0 z m 2,2 0,6 -9,0 0,2 12,0 0,-2 -1,0 0,-6 -2,0 z m 3,8 0,4 2,0 0,-4 -2,0 z m 0,4 -12,0 0,2 4,0 0,2 4,0 0,-2 4,0 0,-2 z m -12,0 0,-4 -2,0 0,4 2,0 z"
     id="rect4214"
     inkscape:connector-curvature="0" />
  <path
     style="opacity:1;fill:#684fc9;fill-opacity:1;fill-rule:nonzero;stroke:none;stroke-width:1;stroke-linejoin:round;stroke-miterlimit:4;stroke-dasharray:none;stroke-opacity:1"
     d="m 19,12 0,2 -2,0 0,2 2,0 0,2 9,0 0,-2 0,-2 -2,0 0,-2 -7,0 z"
     id="rect4247"
     inkscape:connector-curvature="0" />
  <rect
     style="opacity:1;fill:#e9e9f8;fill-opacity:1;fill-rule:nonzero;stroke:none;stroke-width:1;stroke-linejoin:round;stroke-miterlimit:4;stroke-dasharray:none;stroke-opacity:1"
     id="rect4254"
     width="6"
     height="2"
     x="20"
     y="14" />
  <path
     style="opacity:1;fill:#996000;fill-opacity:1;fill-rule:nonzero;stroke:none;stroke-width:1;stroke-linejoin:round;stroke-miterlimit:4;stroke-dasharray:none;stroke-opacity:1"
     d="M 17 18 L 17 20 L 19 20 L 19 18 L 17 18 z M 17 20 L 15 20 L 15 28 L 17 28 L 17 30 L 19 30 L 19 32 L 17 32 L 17 34 L 19 34 L 21 34 L 22 34 L 22 36 L 27 36 L 27 34 L 23 34 L 23 32 L 21 32 L 21 27 L 19 27 L 19 25 L 17 25 L 17 20 z M 23 32 L 35 32 L 35 30 L 26 30 L 26 28 L 23 28 L 23 30 L 23 32 z M 17 34 L 15 34 L 15 36 L 17 36 L 17 34 z M 28 18 L 28 20 L 30 20 L 30 18 L 28 18 z "
     id="rect4274" />
  <path
     style="opacity:1;fill:#f8c123;fill-opacity:1;fill-rule:nonzero;stroke:none;stroke-width:1;stroke-linejoin:round;stroke-miterlimit:4;stroke-dasharray:none;stroke-opacity:1"
     d="M 19 18 L 19 20 L 17 20 L 17 25 L 19 25 L 19 27 L 21 27 L 21 20 L 26 20 L 26 26 L 28 26 L 28 18 L 26 18 L 19 18 z M 17 34 L 17 36 L 22 36 L 22 34 L 17 34 z "
     id="rect4296" />
  <rect
     style="opacity:1;fill:#f88107;fill-opacity:1;fill-rule:nonzero;stroke:none;stroke-width:1;stroke-linejoin:round;stroke-miterlimit:4;stroke-dasharray:none;stroke-opacity:1"
     id="rect4306"
     width="9"
     height="2"
     x="26"
     y="28" />
  <rect
     style="opacity:1;fill:#684fc9;fill-opacity:1;fill-rule:nonzero;stroke:none;stroke-width:1;stroke-linejoin:round;stroke-miterlimit:4;stroke-dasharray:none;stroke-opacity:1"
     id="rect4308"
     width="2"
     height="4"
     x="24"
     y="21" />
  <rect
     style="opacity:1;fill:#e9e9f8;fill-opacity:1;fill-rule:nonzero;stroke:none;stroke-width:1;stroke-linejoin:round;stroke-miterlimit:4;stroke-dasharray:none;stroke-opacity:1"
     id="rect4312"
     width="4"
     height="6"
     x="28"
     y="20" />
  <rect
     style="opacity:1;fill:#684fc9;fill-opacity:1;fill-rule:nonzero;stroke:none;stroke-width:1;stroke-linejoin:round;stroke-miterlimit:4;stroke-dasharray:none;stroke-opacity:1"
     id="rect4310"
     width="2"
     height="4"
     x="28"
     y="21" />
</svg>
